collections/assainissement/svg_nb/ASS_CHAMBREDEPOLLUTION.svg

<?xml version="1.0" encoding="UTF-8" standalone="no"?>
<svg
   width="100"
   height="100"
   version="1.1"
   id="svg2682"
   sodipodi:docname="ASS_CHAMBREDEPOLLUTION.svg"
   inkscape:version="1.1.1 (3bf5ae0d25, 2021-09-20)"
   xmlns:inkscape="http://www.inkscape.org/namespaces/inkscape"
   xmlns:sodipodi="http://sodipodi.sourceforge.net/DTD/sodipodi-0.dtd"
   xmlns="http://www.w3.org/2000/svg"
   xmlns:svg="http://www.w3.org/2000/svg"
   xmlns:rdf="http://www.w3.org/1999/02/22-rdf-syntax-ns#"
   xmlns:cc="http://creativecommons.org/ns#"
   xmlns:dc="http://purl.org/dc/elements/1.1/">
  <metadata
     id="metadata829">
    <rdf:RDF>
      <cc:Work
         rdf:about="">
        <dc:format>image/svg+xml</dc:format>
        <dc:type
           rdf:resource="http://purl.org/dc/dcmitype/StillImage" />
        <cc:license
           rdf:resource="http://creativecommons.org/licenses/by-sa/4.0/" />
        <dc:creator>
          <cc:Agent>
            <dc:title>ASTEE</dc:title>
          </cc:Agent>
        </dc:creator>
        <dc:contributor>
          <cc:Agent>
            <dc:title>ASTEE; Le Grand Lyon</dc:title>
          </cc:Agent>
        </dc:contributor>
        <dc:language>FR</dc:language>
        <dc:subject>
          <rdf:Bag>
            <rdf:li>eau</rdf:li>
            <rdf:li>potable</rdf:li>
            <rdf:li>assainissement</rdf:li>
          </rdf:Bag>
        </dc:subject>
        <dc:date />
      </cc:Work>
      <cc:License
         rdf:about="http://creativecommons.org/licenses/by-sa/4.0/">
        <cc:permits
           rdf:resource="http://creativecommons.org/ns#Reproduction" />
        <cc:permits
           rdf:resource="http://creativecommons.org/ns#Distribution" />
        <cc:requires
           rdf:resource="http://creativecommons.org/ns#Notice" />
        <cc:requires
           rdf:resource="http://creativecommons.org/ns#Attribution" />
        <cc:permits
           rdf:resource="http://creativecommons.org/ns#DerivativeWorks" />
        <cc:requires
           rdf:resource="http://creativecommons.org/ns#ShareAlike" />
      </cc:License>
    </rdf:RDF>
  </metadata>
  <defs
     id="defs2686" />
  <sodipodi:namedview
     pagecolor="#ffffff"
     bordercolor="#666666"
     borderopacity="1"
     objecttolerance="10"
     gridtolerance="10"
     guidetolerance="10"
     inkscape:pageopacity="0"
     inkscape:pageshadow="2"
     inkscape:window-width="1598"
     inkscape:window-height="837"
     id="namedview2684"
     showgrid="false"
     fit-margin-top="0"
     fit-margin-left="0"
     fit-margin-right="0"
     fit-margin-bottom="0"
     inkscape:zoom="4.2514"
     inkscape:cx="68.919"
     inkscape:cy="60.334"
     inkscape:window-x="0"
     inkscape:window-y="0"
     inkscape:window-maximized="1"
     inkscape:current-layer="svg2682"
     inkscape:pagecheckerboard="0"
     width="100px" />
  <path
     d="m 25.356,1.3068 h 49.285 c 13.284,0 24.052,10.7672 24.052,24.0502 v 49.286 c 0,13.281 -10.768,24.05 -24.052,24.05 H 25.356 C 12.072,98.693 1.3066,87.924 1.3066,74.643 V 25.357 C 1.3076,12.074 12.073,1.3068 25.356,1.3068 Z"
     id="path2676"
     inkscape:connector-curvature="0"
     style="fill:#ffffff;fill-opacity:1" />
  <path
     fill="#000000"
     d="M 26.391,0.2665 C 11.955,0.2665 0.2665,11.956 0.2665,26.391 v 47.217 c 0,14.439 11.6895,26.125 26.1245,26.125 h 47.22 c 14.436,0 26.122,-11.686 26.122,-26.125 V 26.391 C 99.733,11.955 88.047,0.2665 73.611,0.2665 Z m 0,6.2246 h 47.22 c 9.992,0 19.895,9.7229 19.895,19.8999 v 47.217 c 0,10.551 -10.275,19.909 -19.895,19.909 H 26.391 C 16.585,93.517 6.4833,84.159 6.4833,73.608 V 26.391 C 6.4823,15.29 16.212,6.4911 26.391,6.4911 Z M 16.602,43.507 v 28.711 c 0,0 -0.358,9.14 8.672,9.14 h 49.805 c 0,0 8.321,-1.735 8.321,-9.14 V 43.507 Z"
     id="path2678"
     inkscape:connector-curvature="0"
     style="stroke:none;stroke-opacity:1" />
</svg>

<?xml version="1.0" encoding="UTF-8"?>
<svg id="svg2682" width="100" height="100" version="1.1" xmlns="http://www.w3.org/2000/svg" xmlns:cc="http://creativecommons.org/ns#" xmlns:dc="http://purl.org/dc/elements/1.1/" xmlns:rdf="http://www.w3.org/1999/02/22-rdf-syntax-ns#">
 <metadata id="metadata829">
  <rdf:RDF>
   <cc:Work rdf:about="">
    <dc:format>image/svg+xml</dc:format>
    <dc:type rdf:resource="http://purl.org/dc/dcmitype/StillImage"/>
    <cc:license rdf:resource="http://creativecommons.org/licenses/by-sa/4.0/"/>
    <dc:creator>
     <cc:Agent>
      <dc:title>ASTEE</dc:title>
     </cc:Agent>
    </dc:creator>
    <dc:contributor>
     <cc:Agent>
      <dc:title>ASTEE; Le Grand Lyon</dc:title>
     </cc:Agent>
    </dc:contributor>
    <dc:language>FR</dc:language>
    <dc:subject>
     <rdf:Bag>
      <rdf:li>eau</rdf:li>
      <rdf:li>potable</rdf:li>
      <rdf:li>assainissement</rdf:li>
     </rdf:Bag>
    </dc:subject>
    <dc:date/>
   </cc:Work>
   <cc:License rdf:about="http://creativecommons.org/licenses/by-sa/4.0/">
    <cc:permits rdf:resource="http://creativecommons.org/ns#Reproduction"/>
    <cc:permits rdf:resource="http://creativecommons.org/ns#Distribution"/>
    <cc:requires rdf:resource="http://creativecommons.org/ns#Notice"/>
    <cc:requires rdf:resource="http://creativecommons.org/ns#Attribution"/>
    <cc:permits rdf:resource="http://creativecommons.org/ns#DerivativeWorks"/>
    <cc:requires rdf:resource="http://creativecommons.org/ns#ShareAlike"/>
   </cc:License>
  </rdf:RDF>
 </metadata>
 <path id="path2676" d="m25.356 1.3068h49.285c13.284 0 24.052 10.767 24.052 24.05v49.286c0 13.281-10.768 24.05-24.052 24.05h-49.285c-13.284 0-24.049-10.769-24.049-24.05v-49.286c1e-3 -13.283 10.766-24.05 24.049-24.05z" fill="#fff"/>
 <path id="path2678" d="m26.391 0.2665c-14.436 0-26.124 11.69-26.124 26.124v47.217c0 14.439 11.69 26.125 26.124 26.125h47.22c14.436 0 26.122-11.686 26.122-26.125v-47.217c0-14.436-11.686-26.124-26.122-26.124zm0 6.2246h47.22c9.992 0 19.895 9.7229 19.895 19.9v47.217c0 10.551-10.275 19.909-19.895 19.909h-47.22c-9.806 0-19.908-9.358-19.908-19.909v-47.217c-1e-3 -11.101 9.7287-19.9 19.908-19.9zm-9.789 37.016v28.711s-0.358 9.14 8.672 9.14h49.805s8.321-1.735 8.321-9.14v-28.711z"/>
</svg>
